resources/help/button_select.svg

<?xml version="1.0" encoding="UTF-8"?>
<svg width="96" height="32" version="1.1" viewBox="0 0 96 32" xmlns="http://www.w3.org/2000/svg">
 <path id="outline" d="m2 16.0a11.0 11.0 0 0 1 11.0-11.0h70.0a11.0 11.0 0 0 1 11.0 11.0 11.0 11.0 0 0 1 -11.0 11.0h-70.0a11.0 11.0 0 0 1 -11.0 -11.0z" fill="none" stroke="#fff" stroke-width="3"/>
 <g transform="translate(11.347,-9.156) scale(1.15)"><g id ="label_select" fill="#fff">
  <path d="m7.5908203 26.665543q0.5175781 0 0.7910156-0.341797 0.2734375-0.351563 0.2734375-0.84961 0-0.507812-0.1464843-0.859375-0.1464844-0.361328-0.4296875-0.664062-0.2832032-0.302735-0.5371094-0.498047-0.2441406-0.205078-0.6152344-0.46875-1.2792969-0.898438-1.8945312-1.894531-0.6054688-0.996094-0.6054688-2.353516 0-1.875 1.1230469-2.96875 1.1328125-1.103516 2.9199219-1.103516t3.5253904 1.044922l-1.044922 2.509766q-0.05859-0.0293-0.302734-0.15625-0.244141-0.136719-0.3125-0.166016-0.06836-0.03906-0.283203-0.136718-0.2148439-0.107422-0.3027346-0.146485l-0.2636718-0.09766q-0.4296875-0.166016-0.8300782-0.166016-0.390625 0-0.625 0.361328-0.2246093 0.351563-0.2246093 0.859375 0 0.498047 0.1269531 0.830079 0.1269531 0.332031 0.390625 0.615234 0.4492187 0.46875 1.1035156 0.898437 1.2988282 0.878907 1.9531252 1.855469 0.664062 0.966797 0.664062 2.333985 0 2.041015-1.09375 3.134765-1.0937497 1.083985-3.1152341 1.083985-2.0117187 0-3.515625-0.84961v-3.203125q2.1289063 1.396485 3.2714844 1.396485z"/>
  <path d="m21.125977 17.505386h-3.66211v2.88086h3.398438v2.65625h-3.398438v3.417968h3.66211v2.675782h-7.080079v-14.277344h7.080079z"/>
  <path d="m26.838867 26.460464h3.574219v2.675782h-6.992188v-14.277344h3.417969z"/>
  <path d="m39.602539 17.505386h-3.662109v2.88086h3.398437v2.65625h-3.398437v3.417968h3.662109v2.675782h-7.080078v-14.277344h7.080078z"/>
  <path d="m46.643555 29.321793q-1.181641 0-2.109375-0.400391-0.917969-0.410156-1.503907-1.083984-0.585937-0.673829-0.966796-1.63086-0.69336-1.738281-0.69336-4.189453 0-1.933594 0.488281-3.564453 0.488282-1.650391 1.660157-2.714844 1.210937-1.074219 3.164062-1.074219 0.859375 0 1.650391 0.253907 0.800781 0.253906 1.728515 0.849609l-0.976562 2.412109q-0.07813-0.07813-0.380859-0.253906-0.302735-0.185547-0.556641-0.292969-0.673828-0.302734-1.259766-0.302734-0.576172 0-0.947265 0.341797-0.371094 0.332031-0.576172 0.820312-0.205078 0.488282-0.322266 1.171875-0.205078 1.103516-0.205078 2.373047 0 4.609375 2.099609 4.609375 0.917969 0 2.72461-1.035156v2.880859q-1.279297 0.830079-3.017578 0.830079z"/>
  <path d="m59.680664 17.544449h-2.65625v11.591797h-3.398437v-11.591797h-2.65625v-2.685547h8.710937z"/>
 </g></g>
</svg>

<?xml version="1.0" encoding="UTF-8" standalone="no"?>
<svg
   width="109"
   height="32"
   viewBox="0 0 109 32"
   version="1.1"
   id="svg1"
   xmlns="http://www.w3.org/2000/svg"
   xmlns:svg="http://www.w3.org/2000/svg">
  <defs
     id="defs1" />
  <path
     id="pillshape" fill="#fff"
     d="M 16 2 A 14 14 0 0 0 2 16 A 14 14 0 0 0 6.8808594 26.554688 C 7.141508 26.625694 7.379314 26.666016 7.5898438 26.666016 C 7.9348959 26.666016 8.2005208 26.552084 8.3828125 26.324219 C 8.5651041 26.089844 8.65625 25.806641 8.65625 25.474609 C 8.65625 25.136068 8.6074218 24.84961 8.5097656 24.615234 C 8.4121094 24.374349 8.2688802 24.152995 8.0800781 23.951172 C 7.891276 23.749349 7.7102864 23.583333 7.5410156 23.453125 C 7.3782552 23.316407 7.1731772 23.160157 6.9257812 22.984375 C 6.0729166 22.385417 5.4433593 21.753906 5.0332031 21.089844 C 4.6295573 20.425782 4.4257812 19.641276 4.4257812 18.736328 C 4.4257812 17.486328 4.8001302 16.496744 5.5488281 15.767578 C 6.3040365 15.0319 7.2792969 14.664062 8.4707031 14.664062 C 9.6621094 14.664062 10.835287 15.01237 11.994141 15.708984 L 10.949219 18.21875 C 10.910159 18.199217 10.8112 18.147134 10.648438 18.0625 C 10.485678 17.971354 10.38151 17.916016 10.335938 17.896484 C 10.290364 17.870444 10.19401 17.824871 10.050781 17.759766 C 9.907552 17.688151 9.8085938 17.639323 9.75 17.613281 L 9.4863281 17.515625 C 9.1998698 17.404948 8.9231771 17.349609 8.65625 17.349609 C 8.3958333 17.349609 8.1875 17.470052 8.03125 17.710938 C 7.8815104 17.945312 7.8066406 18.23177 7.8066406 18.570312 C 7.8066406 18.902344 7.8470052 19.179036 7.9316406 19.400391 C 8.016276 19.621745 8.1464844 19.826823 8.3222656 20.015625 C 8.6217448 20.328125 8.9895834 20.627605 9.4257812 20.914062 C 10.291667 21.500001 10.942708 22.11849 11.378906 22.769531 C 11.821614 23.414062 12.042969 24.192057 12.042969 25.103516 C 12.042969 26.464193 11.678385 27.509114 10.949219 28.238281 C 10.752914 28.432833 10.533993 28.60012 10.292969 28.742188 A 14 14 0 0 0 16 30 L 93 30 A 14 14 0 0 0 107 16 A 14 14 0 0 0 93 2 L 16 2 z M 46.681641 14.664062 C 47.254558 14.664062 47.804687 14.748698 48.332031 14.917969 C 48.865885 15.08724 49.444011 15.370442 50.0625 15.767578 L 49.085938 18.179688 C 49.033852 18.1276 48.906898 18.042965 48.705078 17.925781 C 48.503255 17.802083 48.317708 17.704427 48.148438 17.632812 C 47.69922 17.43099 47.277344 17.330078 46.886719 17.330078 C 46.502604 17.330078 46.186848 17.444011 45.939453 17.671875 C 45.692057 17.893229 45.5 18.166667 45.363281 18.492188 C 45.226562 18.817709 45.119142 19.208334 45.041016 19.664062 C 44.904298 20.39974 44.837891 21.190755 44.837891 22.037109 C 44.837891 25.110026 45.537761 26.646484 46.9375 26.646484 C 47.549479 26.646484 48.455729 26.301432 49.660156 25.611328 L 49.660156 28.492188 C 48.807291 29.045573 47.801432 29.322266 46.642578 29.322266 C 45.854817 29.322266 45.151692 29.188803 44.533203 28.921875 C 43.921223 28.648438 43.421875 28.28711 43.03125 27.837891 C 42.640625 27.388672 42.318359 26.845052 42.064453 26.207031 C 41.602213 25.048177 41.369141 23.651692 41.369141 22.017578 C 41.369141 20.728515 41.533854 19.540365 41.859375 18.453125 C 42.184896 17.352865 42.736328 16.447916 43.517578 15.738281 C 44.324869 15.022135 45.379558 14.664062 46.681641 14.664062 z M 14.046875 14.859375 L 21.126953 14.859375 L 21.126953 17.505859 L 17.462891 17.505859 L 17.462891 20.386719 L 20.861328 20.386719 L 20.861328 23.042969 L 17.462891 23.042969 L 17.462891 26.460938 L 21.126953 26.460938 L 21.126953 29.136719 L 14.046875 29.136719 L 14.046875 14.859375 z M 23.421875 14.859375 L 26.837891 14.859375 L 26.837891 26.460938 L 30.414062 26.460938 L 30.414062 29.136719 L 23.421875 29.136719 L 23.421875 14.859375 z M 32.523438 14.859375 L 39.603516 14.859375 L 39.603516 17.505859 L 35.939453 17.505859 L 35.939453 20.386719 L 39.337891 20.386719 L 39.337891 23.042969 L 35.939453 23.042969 L 35.939453 26.460938 L 39.603516 26.460938 L 39.603516 29.136719 L 32.523438 29.136719 L 32.523438 14.859375 z M 50.970703 14.859375 L 59.681641 14.859375 L 59.681641 17.544922 L 57.025391 17.544922 L 57.025391 29.136719 L 53.626953 29.136719 L 53.626953 17.544922 L 50.970703 17.544922 L 50.970703 14.859375 z " />
</svg>
